common/assets/images/logos/home-sonr-dark.svg

<svg fill="none" height="32" viewBox="0 0 92 32" width="92" xmlns="http://www.w3.org/2000/svg" xmlns:xlink="http://www.w3.org/1999/xlink"><linearGradient id="a"><stop offset="0" stop-color="#ffc444"/><stop offset=".5" stop-color="#f46692"/><stop offset="1" stop-color="#fa5853"/></linearGradient><linearGradient id="b" gradientUnits="userSpaceOnUse" x1="4.24701" x2="27.6409" xlink:href="#a" y1="4.41174" y2="29.6292"/><linearGradient id="c" gradientUnits="userSpaceOnUse" x1="1164.52" x2="6881.5" xlink:href="#a" y1="1122.81" y2="7100.07"/><linearGradient id="d" gradientUnits="userSpaceOnUse" x1="764.702" x2="3995.94" xlink:href="#a" y1="585.151" y2="4351.43"/><linearGradient id="e"><stop offset="0" stop-color="#22e1ff"/><stop offset=".583333" stop-color="#1792ff"/><stop offset="1" stop-color="#9665fd"/></linearGradient><radialGradient id="f" cx="0" cy="0" gradientTransform="matrix(-.014536 .14083986 -.02691204 -.00277758 17.856 10.2994)" gradientUnits="userSpaceOnUse" r="1" xlink:href="#e"/><linearGradient id="g" gradientUnits="userSpaceOnUse" x1="2.37705" x2="20.5928" y1="27.2715" y2="27.2715"><stop offset="0" stop-color="#fafafa"/><stop offset="1" stop-color="#cfcfcf"/></linearGradient><radialGradient id="h" cx="0" cy="0" gradientTransform="matrix(-30.60138716 31.48018696 -29.44005212 -28.61820465 31.9993 .521299)" gradientUnits="userSpaceOnUse" r="1" xlink:href="#e"/><linearGradient id="i" gradientUnits="userSpaceOnUse" x1="52.0047" x2="83.6781" xlink:href="#a" y1="7.17131" y2="66.542"/><clipPath id="j"><path d="m0 0h32v32h-32z"/></clipPath><g clip-path="url(#j)"><path d="m18.3958.220809-.3436 1.706671c-.0018.00955-.0073.01802-.0153.0236s-.0179.00782-.0276.00626c-.6655-.09519-1.3369-.14331-2.0093-.144-7.81638 0-14.17724 6.328-14.17724 14.10716-.00077 1.0014.10708 1.9999.32166 2.9782.00188.0085.00078.0173-.00312.0251-.00391.0078-.01038.014-.01833.0175l-1.62439.7414c-.005158.0023-.010778.0035-.016457.0035-.00568 0-.011279-.0013-.0164-.0038-.00512-.0024-.009635-.006-.013223-.0103-.003587-.0044-.006158-.0095-.00753-.015-.296521-1.2236-.44588972-2.4779-.44496574-3.7366 0-8.79196 7.16287574-15.92049064 15.99999574-15.92049064.7912-.00086163 1.5814.05779444 2.3637.17546664.0051.000768.0101.002567.0145.005288.0045.002721.0083.006307.0113.010544.003.004236.0051.009034.0062.014104s.0011.010308.0001.015397z" fill="url(#b)"/><path d="m17.5536 4.37866-.3463 1.70667c-.0018.00945-.0073.01783-.0152.0234-.0078.00556-.0176.00788-.0272.00647-.3864-.04779-.7755-.07148-1.1649-.07093-5.4683 0-9.92221 4.42663-9.92221 9.87413-.00047.3868.02281.7733.06969 1.1573.00096.008-.00066.0161-.00461.0231s-.01003.0125-.01737.0159l-1.65495.7557c-.00534.0024-.01115.0035-.01699.0033s-.01155-.0018-.01672-.0045c-.00516-.0027-.00963-.0066-.01308-.0112-.00345-.0047-.00578-.0101-.00682-.0159-.10758-.6344-.16138-1.2766-.16083-1.92 0-6.44583 5.26936-11.68797 11.74549-11.68797.5086-.0001 1.0167.0334 1.5209.10027.005.00083.0098.00265.014.00533.0043.00269.008.0062.0109.01032s.0049.00877.006.01368c.0011.00492.0011.00999.0002.01493z" fill="url(#c)"/><path d="m16.7087 8.54564-.3464 1.71256c-.0018.0091-.0069.0172-.0143.0228s-.0166.0083-.0259.0076c-.1072-.007-.2144-.0096-.3216-.0096-1.3694.0016-2.692.4959-3.7236 1.3918-1.0317.8958-1.7028 2.1327-1.8894 3.4823-.001.0063-.0035.0123-.0073.0174s-.0089.0092-.0147.0119l-1.80127.823c-.00577.0024-.01205.0034-.01829.0029-.00625-.0006-.01227-.0026-.01755-.006-.00528-.0033-.00965-.0079-.01275-.0133-.00309-.0055-.00482-.0115-.00502-.0178 0-.017 0-.0336 0-.0506 0-4.112 3.36078-7.45549 7.49098-7.45549.2254-.00062.4507.01095.6749.03467.0052.00068.0103.00245.0148.00518.0045.00274.0084.00638.0115.01069.003.00432.0051.00922.0061.01438s.0009.01048-.0002.01561z" fill="url(#d)"/><path d="m17.856 10.3749c0-.2538-.0327.2336 0 0z" fill="url(#f)"/><path d="m18.963 29.0059c-.0047-.0064-.0112-.0112-.0187-.0139-1.7649-.5824-3.4874-1.72-5.3075-2.9205-2.4773-1.6363-5.03934-3.3286-7.50005-3.3286-1.28665 0-2.48217.4619-3.65248 1.4123l-.09543.0773c-.00723.006-.01208.0143-.01365.0235-.00158.0092.00023.0187.00507.0267 2.85369 4.5461 7.94134 7.5573 13.72264 7.5168 1.0585-.0077 2.1137-.1191 3.1502-.3328.4449-.0911.8824-.2011 1.3123-.3302.0062-.0017.0118-.005.0164-.0095s.0079-.01.0097-.0162c.0018-.0061.0021-.0126.0007-.0188s-.0043-.012-.0085-.0168c-.6712-.7819-1.306-1.6352-1.6207-2.0693z" fill="url(#g)"/><path d="m31.9968 16.1301c-.045-7.4773-5.1267-13.75836-12.0172-15.607426-.0052-.001417-.0106-.001742-.016-.000952-.0053.00079-.0104.002676-.0149.005538-.0046.002862-.0085.006637-.0114.011082-.003.004445-.0051.009463-.006.014732-.0767.437333-.6433 4.258126 2.6875 5.630396.0082.00356.015.00986.019.01783.0041.00796.0052.01709.0033.02581-.002.00871-.007.01647-.0141.02194s-.0158.00831-.0248.00802c-.9854-.0688-4.1489.03467-4.7408 4.08163-.0014.0097.001.0196.0066.0276.0057.0081.0143.0136.024.0156.3752.0709 3.5994.6229 6.66-.82617 2.0002-.9472 2.1144-2.12959.9923-3.17866.2595.2176 2.19 1.90773 3.2038 5.05173.1956.6002.3438 1.2147.4433 1.8379.0059.0272.0091.0533.015.0848.0209.1392.0424.2784.0606.4234-.0004.0092.0005.0183.0027.0272v.0059c.015.16.0241.3237.0241.4896.0013 1.3498-.5345 2.6452-1.4903 3.6032-.9558.9579-2.2539 1.5006-3.6107 1.5093-.6935.001-1.3796-.141-2.0152-.417-.8408-.3634-1.5684-.9443-2.1069-1.6823-.5386-.738-.8685-1.6061-.9553-2.514-.0151-.1632-.0242-.3296-.0242-.4992s.0075-.3253.0231-.4853c.0094-.0915-.0068-.1838-.0469-.2666s-.1025-.153-.1802-.2027c-.0777-.0498-.1678-.0771-.2602-.079-.0924-.0018-.1835.0218-.2633.0683-1.248.7258-3.1201 1.9381-4.3134 3.281-.0044.005-.0101.0087-.0164.0107-.0063.0021-.0131.0024-.0196.0011-2.711-.5798-4.86027.3306-6.25628 1.2864-1.09312.7466-1.72518 1.5152-1.80935 1.6202-.00311.004-.00699.0073-.01141.0098s-.00929.0041-.01432.0046c-6.171089.704-4.32046 3.4939-4.07975 3.8219.00309.0039.00693.0072.0113.0097.00437.0024.00918.004.01417.0046.00498.0006.01003.0002.01486-.0012.00483-.0013.00934-.0036.01328-.0067 6.25204-5.0277 12.2162 3.2144 17.6523 4.7856.0081.0026.0152.0077.0203.0144.1099.1557 1.4159 1.9904 2.4811 3.0613.4739.48.9023.807 1.1553.7616.4048-.0725.7817-.9792 1.0562-1.9013.276-.9109.4567-1.8299.4824-1.9637.0011-.0053.0033-.0104.0064-.0148.0032-.0044.0072-.0081.0119-.0108 3.7725-2.2438 5.7443-4.864 6.6364-7.4667v-.0027c.4-1.4329.6018-2.9134.5999-4.4005v-.0816c.0008-.0084.0001-.0169-.0022-.0251z" fill="url(#h)"/></g><path d="m46.2 23.14c-.9733 0-1.8533-.1667-2.64-.5-.7733-.3333-1.3867-.8133-1.84-1.44s-.6867-1.3667-.7-2.22h3c.04.5733.24 1.0267.6 1.36.3733.3333.88.5 1.52.5.6533 0 1.1667-.1533 1.54-.46.3733-.32.56-.7333.56-1.24 0-.4133-.1267-.7533-.38-1.02s-.5733-.4733-.96-.62c-.3733-.16-.8933-.3333-1.56-.52-.9067-.2667-1.6467-.5267-2.22-.78-.56-.2667-1.0467-.66-1.46-1.18-.4-.5333-.6-1.24-.6-2.12 0-.8267.2067-1.5467.62-2.16s.9933-1.08 1.74-1.4c.7467-.33333 1.6-.5 2.56-.5 1.44 0 2.6067.35333 3.5 1.06.9067.6933 1.4067 1.6667 1.5 2.92h-3.08c-.0267-.48-.2333-.8733-.62-1.18-.3733-.32-.8733-.48-1.5-.48-.5467 0-.9867.14-1.32.42-.32.28-.48.6867-.48 1.22 0 .3733.12.6867.36.94.2533.24.56.44.92.6.3733.1467.8933.32 1.56.52.9067.2667 1.6467.5333 2.22.8s1.0667.6667 1.48 1.2.62 1.2333.62 2.1c0 .7467-.1933 1.44-.58 2.08s-.9533 1.1533-1.7 1.54c-.7467.3733-1.6333.56-2.66.56zm12.2875.04c-1.0667 0-2.0267-.2333-2.88-.7-.8533-.48-1.5267-1.1533-2.02-2.02-.48-.8667-.72-1.8667-.72-3s.2467-2.1333.74-3c.5067-.8667 1.1933-1.5333 2.06-2 .8667-.48 1.8333-.72 2.9-.72s2.0333.24 2.9.72c.8667.4667 1.5467 1.1333 2.04 2 .5067.8667.76 1.8667.76 3s-.26 2.1333-.78 3c-.5067.8667-1.2 1.54-2.08 2.02-.8667.4667-1.84.7-2.92.7zm0-2.44c.5067 0 .98-.12 1.42-.36.4533-.2533.8133-.6267 1.08-1.12s.4-1.0933.4-1.8c0-1.0533-.28-1.86-.84-2.42-.5467-.5733-1.22-.86-2.02-.86s-1.4733.2867-2.02.86c-.5333.56-.8 1.3667-.8 2.42s.26 1.8667.78 2.44c.5333.56 1.2.84 2 .84zm13.9739-8.98c1.32 0 2.3867.42 3.2 1.26.8133.8267 1.22 1.9867 1.22 3.48v6.5h-2.8v-6.12c0-.88-.22-1.5533-.66-2.02-.44-.48-1.04-.72-1.8-.72-.7733 0-1.3867.24-1.84.72-.44.4667-.66 1.14-.66 2.02v6.12h-2.8v-11.08h2.8v1.38c.3733-.48.8467-.8533 1.42-1.12.5867-.28 1.2267-.42 1.92-.42zm9.8827 1.88c.36-.5867.8266-1.0467 1.4-1.38.5866-.3333 1.2533-.5 2-.5v2.94h-.74c-.88 0-1.5467.2067-2 .62-.44.4133-.66 1.1333-.66 2.16v5.52h-2.8v-11.08h2.8z" fill="#fcfcfd"/><path d="m88.87 23.14c-.5067 0-.9267-.1533-1.26-.46-.32-.32-.48-.7133-.48-1.18s.16-.8533.48-1.16c.3333-.32.7533-.48 1.26-.48.4933 0 .9.16 1.22.48.32.3067.48.6933.48 1.16s-.16.86-.48 1.18c-.32.3067-.7267.46-1.22.46z" fill="url(#i)"/></svg>

<svg width="92" height="32" viewBox="0 0 92 32" fill="none" xmlns="http://www.w3.org/2000/svg">
<g clip-path="url(#clip0)">
<path d="M18.3958 0.220809L18.0522 1.92748C18.0504 1.93703 18.0449 1.9455 18.0369 1.95108C18.0289 1.95666 18.019 1.9589 18.0093 1.95734C17.3438 1.86215 16.6724 1.81403 16 1.81334C8.18362 1.81334 1.82276 8.14134 1.82276 15.9205C1.82199 16.9219 1.92984 17.9204 2.14442 18.8987C2.1463 18.9072 2.1452 18.916 2.1413 18.9238C2.13739 18.9316 2.13092 18.9378 2.12297 18.9413L0.49858 19.6827C0.493422 19.685 0.487802 19.6862 0.482123 19.6862C0.476443 19.6862 0.470844 19.6849 0.465723 19.6824C0.460603 19.68 0.456088 19.6764 0.4525 19.6721C0.448913 19.6677 0.446342 19.6626 0.44497 19.6571C0.148449 18.4335 -0.000919723 17.1792 4.26052e-06 15.9205C4.26052e-06 7.12854 7.16288 9.35539e-06 16 9.35539e-06C16.7912 -0.000852271 17.5814 0.0578038 18.3637 0.175476C18.3688 0.176244 18.3738 0.178043 18.3782 0.180764C18.3827 0.183485 18.3865 0.187071 18.3895 0.191308C18.3925 0.195544 18.3946 0.200342 18.3957 0.205412C18.3968 0.210482 18.3968 0.21572 18.3958 0.220809Z" fill="url(#paint0_linear)"/>
<path d="M17.5536 4.37866L17.2073 6.08533C17.2055 6.09478 17.2 6.10316 17.1921 6.10873C17.1843 6.11429 17.1745 6.11661 17.1649 6.1152C16.7785 6.06741 16.3894 6.04372 16 6.04427C10.5317 6.04427 6.07779 10.4709 6.07779 15.9184C6.07732 16.3052 6.1006 16.6917 6.14748 17.0757C6.14844 17.0837 6.14682 17.0918 6.14287 17.0988C6.13892 17.1058 6.13284 17.1113 6.1255 17.1147L4.47055 17.8704C4.46521 17.8728 4.4594 17.8739 4.45356 17.8737C4.44772 17.8735 4.44201 17.8719 4.43684 17.8692C4.43168 17.8665 4.42721 17.8626 4.42376 17.858C4.42031 17.8533 4.41798 17.8479 4.41694 17.8421C4.30936 17.2077 4.25556 16.5655 4.25611 15.9221C4.25611 9.47627 9.52547 4.23413 16.0016 4.23413C16.5102 4.23403 17.0183 4.26753 17.5225 4.3344C17.5275 4.33523 17.5323 4.33705 17.5365 4.33973C17.5408 4.34242 17.5445 4.34593 17.5474 4.35005C17.5503 4.35417 17.5523 4.35882 17.5534 4.36373C17.5545 4.36865 17.5545 4.37372 17.5536 4.37866Z" fill="url(#paint1_linear)"/>
<path d="M16.7087 8.54564L16.3623 10.2582C16.3605 10.2673 16.3554 10.2754 16.348 10.281C16.3406 10.2866 16.3314 10.2893 16.3221 10.2886C16.2149 10.2816 16.1077 10.279 16.0005 10.279C14.6311 10.2806 13.3085 10.7749 12.2769 11.6708C11.2452 12.5666 10.5741 13.8035 10.3875 15.1531C10.3865 15.1594 10.384 15.1654 10.3802 15.1705C10.3764 15.1756 10.3713 15.1797 10.3655 15.1824L8.56423 16.0054C8.55846 16.0078 8.55218 16.0088 8.54594 16.0083C8.53969 16.0077 8.53367 16.0057 8.52839 16.0023C8.52311 15.999 8.51874 15.9944 8.51564 15.989C8.51255 15.9835 8.51082 15.9775 8.51062 15.9712C8.51062 15.9542 8.51062 15.9376 8.51062 15.9206C8.51062 11.8086 11.8714 8.46511 16.0016 8.46511C16.227 8.46449 16.4523 8.47606 16.6765 8.49978C16.6817 8.50046 16.6868 8.50223 16.6913 8.50496C16.6958 8.5077 16.6997 8.51134 16.7028 8.51565C16.7058 8.51997 16.7079 8.52487 16.7089 8.53003C16.7099 8.53519 16.7098 8.54051 16.7087 8.54564Z" fill="url(#paint2_linear)"/>
<path d="M17.856 10.3749C17.856 10.1211 17.8233 10.6085 17.856 10.3749V10.3749Z" fill="url(#paint3_radial)"/>
<path d="M18.963 29.0059C18.9583 28.9995 18.9518 28.9947 18.9443 28.992C17.1794 28.4096 15.4569 27.272 13.6368 26.0715C11.1595 24.4352 8.59746 22.7429 6.13675 22.7429C4.8501 22.7429 3.65458 23.2048 2.48427 24.1552L2.38884 24.2325C2.38161 24.2385 2.37676 24.2468 2.37519 24.256C2.37361 24.2652 2.37542 24.2747 2.38026 24.2827C5.23395 28.8288 10.3216 31.84 16.1029 31.7995C17.1614 31.7918 18.2166 31.6804 19.2531 31.4667C19.698 31.3756 20.1355 31.2656 20.5654 31.1365C20.5716 31.1348 20.5772 31.1315 20.5818 31.127C20.5864 31.1225 20.5897 31.117 20.5915 31.1108C20.5933 31.1047 20.5936 31.0982 20.5922 31.092C20.5908 31.0858 20.5879 31.08 20.5837 31.0752C19.9125 30.2933 19.2777 29.44 18.963 29.0059Z" fill="url(#paint4_linear)"/>
<path d="M31.9968 16.1301C31.9518 8.6528 26.8701 2.37174 19.9796 0.522674C19.9744 0.521257 19.969 0.520932 19.9636 0.521722C19.9583 0.522512 19.9532 0.524398 19.9487 0.52726C19.9441 0.530122 19.9402 0.533897 19.9373 0.538342C19.9343 0.542787 19.9322 0.547805 19.9313 0.553074C19.8546 0.990407 19.288 4.8112 22.6188 6.18347C22.627 6.18703 22.6338 6.19333 22.6378 6.2013C22.6419 6.20926 22.643 6.21839 22.6411 6.22711C22.6391 6.23582 22.6341 6.24358 22.627 6.24905C22.6199 6.25452 22.6112 6.25736 22.6022 6.25707C21.6168 6.18827 18.4533 6.29174 17.8614 10.3387C17.86 10.3484 17.8624 10.3583 17.868 10.3663C17.8737 10.3744 17.8823 10.3799 17.892 10.3819C18.2672 10.4528 21.4914 11.0048 24.552 9.55573C26.5522 8.60853 26.6664 7.42614 25.5443 6.37707C25.8038 6.59467 27.7343 8.2848 28.7481 11.4288C28.9437 12.029 29.0919 12.6435 29.1914 13.2667C29.1973 13.2939 29.2005 13.32 29.2064 13.3515C29.2273 13.4907 29.2488 13.6299 29.267 13.7749C29.2666 13.7841 29.2675 13.7932 29.2697 13.8021V13.808C29.2847 13.968 29.2938 14.1317 29.2938 14.2976C29.2951 15.6474 28.7593 16.9428 27.8035 17.9008C26.8477 18.8587 25.5496 19.4014 24.1928 19.4101C23.4993 19.4111 22.8132 19.2691 22.1776 18.9931C21.3368 18.6297 20.6092 18.0488 20.0707 17.3108C19.5321 16.5728 19.2022 15.7047 19.1154 14.7968C19.1003 14.6336 19.0912 14.4672 19.0912 14.2976C19.0912 14.128 19.0987 13.9723 19.1143 13.8123C19.1237 13.7208 19.1075 13.6285 19.0674 13.5457C19.0273 13.4629 18.9649 13.3927 18.8872 13.343C18.8095 13.2932 18.7194 13.2659 18.627 13.264C18.5346 13.2622 18.4435 13.2858 18.3637 13.3323C17.1157 14.0581 15.2436 15.2704 14.0503 16.6133C14.0459 16.6183 14.0402 16.622 14.0339 16.624C14.0276 16.6261 14.0208 16.6264 14.0143 16.6251C11.3033 16.0453 9.15403 16.9557 7.75802 17.9115C6.6649 18.6581 6.03284 19.4267 5.94867 19.5317C5.94556 19.5357 5.94168 19.539 5.93726 19.5415C5.93284 19.544 5.92797 19.5456 5.92294 19.5461C-0.248149 20.2501 1.60248 23.04 1.84319 23.368C1.84628 23.3719 1.85012 23.3752 1.85449 23.3777C1.85886 23.3801 1.86367 23.3817 1.86866 23.3823C1.87364 23.3829 1.87869 23.3825 1.88352 23.3811C1.88835 23.3798 1.89286 23.3775 1.8968 23.3744C8.14884 18.3467 14.113 26.5888 19.5491 28.16C19.5572 28.1626 19.5643 28.1677 19.5694 28.1744C19.6793 28.3301 20.9853 30.1648 22.0505 31.2357C22.5244 31.7157 22.9528 32.0427 23.2058 31.9973C23.6106 31.9248 23.9875 31.0181 24.262 30.096C24.538 29.1851 24.7187 28.2661 24.7444 28.1323C24.7455 28.127 24.7477 28.1219 24.7508 28.1175C24.754 28.1131 24.758 28.1094 24.7627 28.1067C28.5352 25.8629 30.507 23.2427 31.3991 20.64V20.6373C31.7991 19.2044 32.0009 17.7239 31.999 16.2368V16.1552C31.9998 16.1468 31.9991 16.1383 31.9968 16.1301Z" fill="url(#paint5_radial)"/>
</g>
<path d="M46.2 23.14C45.2267 23.14 44.3467 22.9733 43.56 22.64C42.7867 22.3067 42.1733 21.8267 41.72 21.2C41.2667 20.5733 41.0333 19.8333 41.02 18.98H44.02C44.06 19.5533 44.26 20.0067 44.62 20.34C44.9933 20.6733 45.5 20.84 46.14 20.84C46.7933 20.84 47.3067 20.6867 47.68 20.38C48.0533 20.06 48.24 19.6467 48.24 19.14C48.24 18.7267 48.1133 18.3867 47.86 18.12C47.6067 17.8533 47.2867 17.6467 46.9 17.5C46.5267 17.34 46.0067 17.1667 45.34 16.98C44.4333 16.7133 43.6933 16.4533 43.12 16.2C42.56 15.9333 42.0733 15.54 41.66 15.02C41.26 14.4867 41.06 13.78 41.06 12.9C41.06 12.0733 41.2667 11.3533 41.68 10.74C42.0933 10.1267 42.6733 9.66 43.42 9.34C44.1667 9.00667 45.02 8.84 45.98 8.84C47.42 8.84 48.5867 9.19333 49.48 9.9C50.3867 10.5933 50.8867 11.5667 50.98 12.82H47.9C47.8733 12.34 47.6667 11.9467 47.28 11.64C46.9067 11.32 46.4067 11.16 45.78 11.16C45.2333 11.16 44.7933 11.3 44.46 11.58C44.14 11.86 43.98 12.2667 43.98 12.8C43.98 13.1733 44.1 13.4867 44.34 13.74C44.5933 13.98 44.9 14.18 45.26 14.34C45.6333 14.4867 46.1533 14.66 46.82 14.86C47.7267 15.1267 48.4667 15.3933 49.04 15.66C49.6133 15.9267 50.1067 16.3267 50.52 16.86C50.9333 17.3933 51.14 18.0933 51.14 18.96C51.14 19.7067 50.9467 20.4 50.56 21.04C50.1733 21.68 49.6067 22.1933 48.86 22.58C48.1133 22.9533 47.2267 23.14 46.2 23.14ZM58.4875 23.18C57.4208 23.18 56.4608 22.9467 55.6075 22.48C54.7542 22 54.0808 21.3267 53.5875 20.46C53.1075 19.5933 52.8675 18.5933 52.8675 17.46C52.8675 16.3267 53.1142 15.3267 53.6075 14.46C54.1142 13.5933 54.8008 12.9267 55.6675 12.46C56.5342 11.98 57.5008 11.74 58.5675 11.74C59.6342 11.74 60.6008 11.98 61.4675 12.46C62.3342 12.9267 63.0142 13.5933 63.5075 14.46C64.0142 15.3267 64.2675 16.3267 64.2675 17.46C64.2675 18.5933 64.0075 19.5933 63.4875 20.46C62.9808 21.3267 62.2875 22 61.4075 22.48C60.5408 22.9467 59.5675 23.18 58.4875 23.18ZM58.4875 20.74C58.9942 20.74 59.4675 20.62 59.9075 20.38C60.3608 20.1267 60.7208 19.7533 60.9875 19.26C61.2542 18.7667 61.3875 18.1667 61.3875 17.46C61.3875 16.4067 61.1075 15.6 60.5475 15.04C60.0008 14.4667 59.3275 14.18 58.5275 14.18C57.7275 14.18 57.0542 14.4667 56.5075 15.04C55.9742 15.6 55.7075 16.4067 55.7075 17.46C55.7075 18.5133 55.9675 19.3267 56.4875 19.9C57.0208 20.46 57.6875 20.74 58.4875 20.74ZM72.4614 11.76C73.7814 11.76 74.8481 12.18 75.6614 13.02C76.4747 13.8467 76.8814 15.0067 76.8814 16.5V23H74.0814V16.88C74.0814 16 73.8614 15.3267 73.4214 14.86C72.9814 14.38 72.3814 14.14 71.6214 14.14C70.8481 14.14 70.2347 14.38 69.7814 14.86C69.3414 15.3267 69.1214 16 69.1214 16.88V23H66.3214V11.92H69.1214V13.3C69.4947 12.82 69.9681 12.4467 70.5414 12.18C71.1281 11.9 71.7681 11.76 72.4614 11.76ZM82.3441 13.64C82.7041 13.0533 83.1707 12.5933 83.7441 12.26C84.3307 11.9267 84.9974 11.76 85.7441 11.76V14.7H85.0041C84.1241 14.7 83.4574 14.9067 83.0041 15.32C82.5641 15.7333 82.3441 16.4533 82.3441 17.48V23H79.5441V11.92H82.3441V13.64Z" fill="#FCFCFD"/>
<path d="M88.87 23.14C88.3633 23.14 87.9433 22.9867 87.61 22.68C87.29 22.36 87.13 21.9667 87.13 21.5C87.13 21.0333 87.29 20.6467 87.61 20.34C87.9433 20.02 88.3633 19.86 88.87 19.86C89.3633 19.86 89.77 20.02 90.09 20.34C90.41 20.6467 90.57 21.0333 90.57 21.5C90.57 21.9667 90.41 22.36 90.09 22.68C89.77 22.9867 89.3633 23.14 88.87 23.14Z" fill="url(#paint6_linear)"/>
<defs>
<linearGradient id="paint0_linear" x1="4.24701" y1="4.41174" x2="27.6409" y2="29.6292" gradientUnits="userSpaceOnUse">
<stop stop-color="#FFC444"/>
<stop offset="0.5" stop-color="#F46692"/>
<stop offset="1" stop-color="#FA5853"/>
</linearGradient>
<linearGradient id="paint1_linear" x1="1164.52" y1="1122.81" x2="6881.5" y2="7100.07" gradientUnits="userSpaceOnUse">
<stop stop-color="#FFC444"/>
<stop offset="0.5" stop-color="#F46692"/>
<stop offset="1" stop-color="#FA5853"/>
</linearGradient>
<linearGradient id="paint2_linear" x1="764.702" y1="585.151" x2="3995.94" y2="4351.43" gradientUnits="userSpaceOnUse">
<stop stop-color="#FFC444"/>
<stop offset="0.5" stop-color="#F46692"/>
<stop offset="1" stop-color="#FA5853"/>
</linearGradient>
<radialGradient id="paint3_radial" cx="0" cy="0" r="1" gradientUnits="userSpaceOnUse" gradientTransform="translate(17.856 10.2994) rotate(95.8926) scale(0.141588 0.027055)">
<stop stop-color="#22E1FF"/>
<stop offset="0.583333" stop-color="#1792FF"/>
<stop offset="1" stop-color="#9665FD"/>
</radialGradient>
<linearGradient id="paint4_linear" x1="2.37705" y1="27.2715" x2="20.5928" y2="27.2715" gradientUnits="userSpaceOnUse">
<stop stop-color="#FAFAFA"/>
<stop offset="1" stop-color="#CFCFCF"/>
</linearGradient>
<radialGradient id="paint5_radial" cx="0" cy="0" r="1" gradientUnits="userSpaceOnUse" gradientTransform="translate(31.9993 0.521299) rotate(134.189) scale(43.9027 41.0575)">
<stop stop-color="#22E1FF"/>
<stop offset="0.583333" stop-color="#1792FF"/>
<stop offset="1" stop-color="#9665FD"/>
</radialGradient>
<linearGradient id="paint6_linear" x1="52.0047" y1="7.17131" x2="83.6781" y2="66.542" gradientUnits="userSpaceOnUse">
<stop stop-color="#FFC444"/>
<stop offset="0.5" stop-color="#F46692"/>
<stop offset="1" stop-color="#FA5853"/>
</linearGradient>
<clipPath id="clip0">
<rect width="32" height="32" fill="white"/>
</clipPath>
</defs>
</svg>
